!!!COA: Josquin des Prez
!!!CDT: ~1450-1521/08/27
!!!OTL@@FRA: Dulces exuviae
!!!AGN: Chanson
!!!SCT: NJE 28.11
!!!SCA: New Josquin Edition 28.11
!!!voices: 4
**kern	**kern	**kern	**kern
*staff4	*staff3	*staff2	*staff1
*Ivox	*Ivox	*Ivox	*Ivox
*I"Bassus	*I"Tenor	*I"Altus	*I"Superius
*I'B	*I'T	*I'A	*I'S
*clefF4	*clefGv2	*clefGv2	*clefG2
*k[]	*k[]	*k[]	*k[]
*M2/1	*M2/1	*M2/1	*M2/1
*met(C|)	*met(C|)	*met(C|)	*met(C|)
=1-	=1-	=1-	=1-
0r	0r	[0A	0r
=2	=2	=2	=2
0r	0r	0A]	0r
=3	=3	=3	=3
0r	0r	0c	0r
=4	=4	=4	=4
[0D	0r	[0d	0r
=5	=5	=5	=5
0D]	0r	1d]	0r
.	.	1B	.
=6	=6	=6	=6
0F	0r	0A	0r
=7	=7	=7	=7
0G	[0E	0G	0r
=8	=8	=8	=8
0C	0E]	[0c	0r
=9	=9	=9	=9
1C	0G	1c]	0r
1E	.	1B	.
=10	=10	=10	=10
0AA	[0A	1.A	[0e
.	.	[2c\	.
=11	=11	=11	=11
0r	1A]	2c\]	0e]
.	.	4B\	.
.	.	4A/	.
.	1G	[1B	.
=12	=12	=12	=12
0E	0G	1B]	1g
.	.	1e	1g
=13	=13	=13	=13
[0F	[0c	2A/	[0a
.	.	2.c\	.
.	.	4B\	.
.	.	4A/	.
.	.	4G/	.
=14	=14	=14	=14
1F]	0c]	1F	1a]
1E	.	1G	1g
=15	=15	=15	=15
1C	2c\	1E	[0g
.	4B\	.	.
.	4A/	.	.
[1E	1G	2r	.
.	.	[2G/	.
=16	=16	=16	=16
2E\]	1r	2G/]	0g]
2D\	.	2F/	.
2C/	1G	2E/	.
2BB/	.	2D/	.
=17	=17	=17	=17
2AA/	2.A/	2C/	0r
1A	.	1c	.
.	4B\	.	.
.	2c\	.	.
2G\	[2d\	2B\	.
=18	=18	=18	=18
2F\	2d\]	2A/	0r
2E\	2c\	2G/	.
2D\	4B\	2F/	.
.	4A/	.	.
2C/	[2A/	2E/	.
=19	=19	=19	=19
1BB	2A/]	1D	1r
.	2G#i/	.	.
[1AA	[1A	1E	[1cc
=20	=20	=20	=20
1AA]	1A]	2r	1cc]
.	.	1A	.
1r	1E	.	1b
.	.	2G/	.
=21	=21	=21	=21
0r	1A	2A/	1a
.	.	4G/	.
.	.	4F/	.
.	2B\	2E/	2g/
.	[2c\	[2e\	[2g/
=22	=22	=22	=22
0r	2c\]	2e\]	2g/]
.	2d\	1d	2f/
.	1A	.	1e
.	.	2c\	.
=23	=23	=23	=23
0D	2D/	2d\	1d
.	2.F/	4c\	.
.	.	4B\	.
.	.	[1A	1f
.	4G/	.	.
.	[2A/	.	.
=24	=24	=24	=24
0AA	2A/]	1A]	2e/
.	4G/	.	1d
.	4F/	.	.
.	1E	2.A/	.
.	.	.	2c#i/
.	.	4G/	.
=25	=25	=25	=25
0BB-	2.D/	2.F/	0d
.	4E/	4E/	.
.	2F/	[1D	.
.	[2G/	.	.
=26	=26	=26	=26
1GG	2G/]	1D]	0B
.	4F/	.	.
.	4E/	.	.
1GG	1D	1G	.
=27	=27	=27	=27
0AA	[0A	2.F/	2c/
.	.	.	1d
.	.	8E/L	.
.	.	8D/J	.
.	.	1E	.
.	.	.	2c#i/
=28	=28	=28	=28
0r	0A]	1D	0d
.	.	1r	.
=29	=29	=29	=29
1GG	1D	1d	0r
2GG/	1r	2d\	.
2GG/	.	2d\	.
=30	=30	=30	=30
1GG	1G	1d	0r
1GG	2G/	1d	.
.	2G/	.	.
=31	=31	=31	=31
[0C	1G	[0e	1g
.	1G	.	2g/
.	.	.	2g/
=32	=32	=32	=32
1C]	1c	1e]	1g
1C	1c	1e	1g
=33	=33	=33	=33
0AA	1.c	[0e	1cc
.	.	.	1cc
.	4B\	.	.
.	4A/	.	.
=34	=34	=34	=34
[0E	0G	1.e]	[0b
.	.	4d\	.
.	.	4c\	.
=35	=35	=35	=35
0E]	1r	[0B	0b_
.	1G	.	.
=36	=36	=36	=36
1r	1G	1B]	0b]
1E	1G	1e	.
=37	=37	=37	=37
[0G	1B	0d	1r
.	2G/	.	1b
.	[2B\	.	.
=38	=38	=38	=38
1G]	4B\]	1d	0dd
.	4c\	.	.
.	1d	.	.
1D	.	[1f	.
.	4c\	.	.
.	4B\	.	.
=39	=39	=39	=39
[0F	1.A	2f\]	1.cc
.	.	4e\	.
.	.	4d\	.
.	.	[1c	.
.	2G/	.	2b\
=40	=40	=40	=40
1F]	1F	1c]	1a
1C	1E	1c	1g
=41	=41	=41	=41
1D	1D	4F/	1f
.	.	4G/	.
.	.	4A/	.
.	.	4B\	.
1AA	1C	2c\	[1e
.	.	[2A/	.
=42	=42	=42	=42
0BB	0D	2A/]	2e/]
.	.	4G/	2d/
.	.	4F/	.
.	.	1G	[1d
=43	=43	=43	=43
0AA	0E	1A	2d/]
.	.	.	4c#i/
.	.	.	4B/
.	.	2r	2.c#i/
.	.	[2A/	.
.	.	.	4B/
=44	=44	=44	=44
0r	0D	2A/]	[0d
.	.	2G/	.
.	.	2F/	.
.	.	2E/	.
=45	=45	=45	=45
0D	0r	1D	0d]
.	.	1d	.
=46	=46	=46	=46
0D	0A	1d	0r
.	.	1f	.
=47	=47	=47	=47
1r	0A	2e\	0a
.	.	1f	.
[1F	.	.	.
.	.	4e\	.
.	.	4d\	.
=48	=48	=48	=48
1F]	1r	2c\	0a
.	.	1f	.
1F	[1c	.	.
.	.	4e\	.
.	.	4d\	.
=49	=49	=49	=49
1.C	1c]	1e	1r
.	1c	2r	[1cc
2C/	.	[2e\	.
=50	=50	=50	=50
0C	1.G	4e\]	1cc]
.	.	4d\	.
.	.	4c\	.
.	.	4B\	.
.	.	2c\	1cc
.	2G/	4B\	.
.	.	4A/	.
=51	=51	=51	=51
0r	1G	1B	1.g
.	[1c	2c\	.
.	.	[2e\	2g/
=52	=52	=52	=52
1r	2c\]	2e\]	0g
.	4B\	4d\	.
.	4A/	4c\	.
1G	1B	1d	.
=53	=53	=53	=53
2A\	2A/	1c	1r
2F\	2c\	.	.
2G\	2B\	1r	2r
[2A\	2A/	.	[2cc\
=54	=54	=54	=54
2A\]	2c\	0r	2cc\]
4G\	2d\	.	4b\
4F\	.	.	4a/
2E\	2e\	.	2g/
[2F\	[2A/	.	[2a/
=55	=55	=55	=55
2F\]	2A/]	0r	2a/]
4E\	2B\	.	4g/
4D\	.	.	4f/
1C	4c\	.	1e
.	4B\	.	.
.	4A/	.	.
.	4G/	.	.
=56	=56	=56	=56
0D	2F/	0r	1d
.	2.A/	.	.
.	.	.	[1f
.	4G/	.	.
.	4F/	.	.
.	4E/	.	.
=57	=57	=57	=57
1D	2F/	2r	1f]
.	4E/	1A	.
.	4D/	.	.
2AA/	2C/	.	1e
[2C/	[2E/	2G/	.
=58	=58	=58	=58
2C/]	2E/]	2E/	1c
4BB/	2F/	1A	.
4AA/	.	.	.
1BB	1D	.	1d
.	.	2G#i/	.
=59	=59	=59	=59
1AA	4E/	1A	4c/
.	4F/	.	4d/
.	4G/	.	4e/
.	4A/	.	4f/
2r	4B\	1r	4g/
.	4c\	.	4a/
2GG/	2d\	.	2b\
=60	=60	=60	=60
2AA/	2c\	2r	2a/
2BB/	2B\	2d\	1g
2C/	1A	2e\	.
2D\	.	2d\	2f#i/
=61	=61	=61	=61
1GG	1G	1B	0g
1C	2r	[1c	.
.	[2G/	.	.
=62	=62	=62	=62
1C	2G/]	1c]	1r
.	4F/	.	.
.	4E/	.	.
1D	1F	1A	1d
=63	=63	=63	=63
1E	1E	1G	1g
2E\	2r	2G/	1g
[2C/	[2E/	[2E/	.
=64	=64	=64	=64
2C/]	2E/]	2E/]	1a
2D\	1A	2F/	.
1BB	.	1D	1b
.	2G#i/	.	.
=65	=65	=65	=65
1AA	0A	2E/	0cc
.	.	1e	.
2r	.	.	.
[2A\	.	[2f\	.
=66	=66	=66	=66
2A\]	0r	2f\]	0r
4G\	.	4e\	.
4F\	.	4d\	.
4G\	.	2e\	.
4F\	.	.	.
4E\	.	[2d\	.
4D\	.	.	.
=67	=67	=67	=67
1E	1r	2d\]	1r
.	.	2c#i\	.
1D	1A	1d	1a
=68	=68	=68	=68
1r	2A/	1e	0cc
.	1c	.	.
1A	.	1f	.
.	4B\	.	.
.	4A/	.	.
=69	=69	=69	=69
2E\	1G	2g\	1b
2G\	.	1e	.
1F	1A	.	1a
.	.	2d\	.
=70	=70	=70	=70
2.E\	2B\	0e	1g
.	2c\	.	.
4F\	.	.	.
2G\	2B\	.	1e
[2A\	[2c\	.	.
=71	=71	=71	=71
4A\]	4c\]	0r	0f
4G\	4B\	.	.
4F\	4A/	.	.
4E\	4G/	.	.
2F\	2A/	.	.
4E\	4G/	.	.
4D\	4F/	.	.
=72	=72	=72	=72
2.C/	2G/	2r	2.e/
.	2c\	1e	.
4D\	.	.	4f/
2E\	2B\	.	2g/
2F\	2A/	2d\	[2a/
=73	=73	=73	=73
1E	1B	1e	2a/]
.	.	.	2g#i/
1AA	2A/	1c	1a
.	[2A/	.	.
=74	=74	=74	=74
1r	2A/]	1B	1b
.	2G/	.	.
2r	2A/	1A	1cc
[2A\	4G/	.	.
.	4F/	.	.
=75	=75	=75	=75
2A\]	1E	1B	1r
2G\	.	.	.
2A\	1r	1c	1a
[2AA/	.	.	.
=76	=76	=76	=76
4AA/]	0r	1A	1cc
4BB/	.	.	.
4C/	.	.	.
4D\	.	.	.
2E\	.	2G/	2b\
2F\	.	2A/	2a/
=77	=77	=77	=77
2E\	2r	2B\	2g/
2C/	1A	2c\	2e/
1D	.	1A	1f
.	4G/	.	.
.	4F/	.	.
=78	=78	=78	=78
2r	2G/	1r	2e/
2AA/	2A/	.	1e
2C/	2E/	2r	.
2D\	2F/	[2A/	2d/
=79	=79	=79	=79
1AA	0E	2A/]	[0e
.	.	4G/	.
.	.	4F/	.
[1C	.	2G/	.
.	.	[2E/	.
=80	=80	=80	=80
2C/]	1r	2E/]	0e]
2D\	.	1A	.
1E	[1E	.	.
.	.	2G#i/	.
=81	=81	=81	=81
1AA	1E]	1A	1r
1AA	1A	1c	1e
=82	=82	=82	=82
0E	1G	1B	1g
.	[1c	[1e	1g
=83	=83	=83	=83
1F	1c]	2e\]	0a
.	.	4d\	.
.	.	4c\	.
1F	1A	1d	.
=84	=84	=84	=84
[0El	2B\	[0el	0g
.	1c	.	.
.	4B\	.	.
.	4A/	.	.
=85	=85	=85	=85
0E]	0Gl	0e]	0bl
==	==	==	==
*-	*-	*-	*-
!!!RDF**kern: l=long note in original notation
!!!RDF**kern: i=editorial accidental
!!!ENC: Jesse Rodin; Victoria Chang 2011/07/27
!!!END: 2011/07/27/
!!!EED: Jesse Rodin
!!!EEV: 2011/08/15/
!!attribution-level@Jos: 4 (questionable)
!!!ONB: Translated from MusicXML and edited on 2011/08/15/ by Craig Sapp
!!muse2ps:  C^@{COM}{/}@{COA}?\n@{SCT}^v90,90,90,150I150Q16
